packages/foundations/assets/icons/functional/images/file/cloud_upload_20.svg

<svg width="20" height="20" viewBox="0 0 20 20" fill="none" xmlns="http://www.w3.org/2000/svg">
<g clip-path="url(#clip0_185_895)">
<path fill-rule="evenodd" clip-rule="evenodd" d="M12 3.25C14.7614 3.25 17 5.48858 17 8.25L16.987 8.593L17.0728 8.68907C17.5604 9.27316 17.8745 9.9878 17.9695 10.7552L17.993 11.0129L18 11.25C18 13.3033 16.4487 15.0078 14.4106 15.2275L14.2052 15.2445L13.999 15.2446C13.4475 15.2448 13.0002 14.7979 13 14.2464C13 14.2463 13 14.2466 13 14.2464C13 13.6946 13.4472 13.2468 13.999 13.2466L14.1184 13.2466C15.1214 13.1885 15.9206 12.3921 15.9944 11.4002L16 11.25C16 10.7129 15.7881 10.2121 15.4198 9.84166L15.2914 9.72313L14.8513 9.35084L14.9529 8.78343C14.9841 8.60892 15 8.43071 15 8.25C15 6.59315 13.6569 5.25 12 5.25C10.9714 5.25 10.0356 5.77129 9.48901 6.61042L9.38497 6.78243L9.03947 7.39904L8.34292 7.27912C8.23074 7.25981 8.11622 7.25 8 7.25C7.1683 7.25 6.436 7.76244 6.13852 8.51548L6.08492 8.66922L5.92966 9.18055L5.41828 9.33564C4.58294 9.58898 4 10.3629 4 11.25C4 12.3044 4.81588 13.1682 5.85074 13.2445L6 13.25C6.55201 13.25 7 13.6975 7 14.2495C7 14.8017 6.55267 15.2494 6.0005 15.25C3.85831 15.25 2.10892 13.566 2.0049 11.4496L2 11.25C2 9.75192 2.83073 8.41589 4.09637 7.73097L4.28009 7.6376L4.354 7.604L4.38728 7.53029C4.97964 6.28664 6.18267 5.42029 7.575 5.27245L7.79635 5.25513L8 5.25L8.18245 5.02204C9.06571 3.9758 10.5914 3.31633 12 3.25ZM10 9.25L10.0752 9.25279L10.2007 9.27024L10.3121 9.29974L10.4232 9.34367L10.5207 9.396L10.6254 9.46969L10.7071 9.54289L12.2071 11.0429C12.5976 11.4334 12.5976 12.0666 12.2071 12.4571C11.88 12.7842 11.3827 12.8373 11.0003 12.6165L11 15.75C11 16.3023 10.5523 16.75 10 16.75C9.48716 16.75 9.06449 16.3673 9.00673 15.87L9 15.75L9.00071 12.6159C8.65328 12.8171 8.21068 12.7919 7.8871 12.5403L7.79289 12.4571C7.43241 12.0966 7.40468 11.5294 7.7097 11.1371L7.79289 11.0429L9.29289 9.54289C9.32829 9.5075 9.36567 9.47531 9.40469 9.44633L9.51594 9.37467L9.62866 9.32123L9.73401 9.28584L9.85153 9.26102L9.90997 9.254L10 9.25Z" fill="#1A1C1F"/>
</g>
<defs>
<clipPath id="clip0_185_895">
<rect width="20" height="20" fill="white"/>
</clipPath>
</defs>
</svg>

<svg xmlns="http://www.w3.org/2000/svg" width="20" height="20" fill="none"><g clip-path="url(#a)"><path fill="#1A1C1F" fill-rule="evenodd" d="M12 3.25a5 5 0 0 1 5 5l-.013.343.086.096c.487.584.802 1.299.896 2.066l.024.258.007.237a4.004 4.004 0 0 1-3.59 3.977l-.205.018H14a1 1 0 0 1 0-1.998h.12a2 2 0 0 0 1.875-1.847l.006-.15a2 2 0 0 0-.58-1.408l-.129-.119-.44-.372.102-.568Q15 8.522 15 8.25a3 3 0 0 0-5.511-1.64l-.104.172-.346.617-.696-.12a2.003 2.003 0 0 0-2.204 1.236l-.054.154-.155.512-.512.155a2.001 2.001 0 0 0 .433 3.909L6 13.25a1 1 0 0 1 0 2 4 4 0 0 1-3.995-3.8L2 11.25c0-1.498.83-2.834 2.096-3.519l.184-.093.074-.034.033-.074a4 4 0 0 1 3.188-2.258l.221-.017L8 5.25l.182-.228C9.066 3.976 10.592 3.316 12 3.25m-2 6 .075.003.126.017.111.03.111.044.098.052.104.074.082.073 1.5 1.5A1 1 0 0 1 11 12.617v3.133a1 1 0 0 1-1.993.12L9 15.75v-3.134c-.347.201-.79.176-1.113-.076l-.094-.083a1 1 0 0 1-.083-1.32l.083-.094 1.5-1.5a1 1 0 0 1 .112-.097l.11-.071.114-.054.105-.035.118-.025.058-.007z" clip-rule="evenodd"/></g><defs><clipPath id="a"><path fill="#fff" d="M0 0h20v20H0z"/></clipPath></defs></svg>
